X:3083
T:Om s\ondagsmaarran e' de' kaffikoppen svart
C:anon.
O:Norway
R:Reinlender?
F:http://abc.musicaviva.com/tunes/norway/om-soendagsmaarran/om-soendagsmaarran-1.abc
M:C|
L:1/8
K:D
(FG)|"D"A2(AB) AAAA|"D"FFDE F2 z2|"A"E2ED E2E2|"D"D>EF>G A2(FG)|
w:Om_ s\on-dags--maar-ran e' de' kaf-fi-kop-pen svart, sjung fal-le-ri! Hei fal-le-ral-le-ra! aa_
"D"A2AB A2AA|"D"FFDE F2 z2|"A"E2ED "A7"E2FD|"D"D4 z2d2|
w:den e' no gjort paa en ci-ko-ri-knart. Sjung fal-le-ri, fal-le-ra! Hei
"D"A2AA A2d2|"D"A2AA A2"A"c2|"A"e3d c3B|"D"AA"A7"AG "D"F2(FG)|
w:sjung fal-le-ri! Hei fal-le-ra! Aa sei-tu, rei-tu fal-le-ral-le-ra! aa_
"D"A2AB A2AA|"D"FFDE F2 z2|"A"E2ED "A7"E2FD|"D"D4 z2|]
w:den e' no gjort paa en ci-ko-ri-knart. Sjung fal-le-ri, fal-le-ra!
W:
W:Om s\ondagsmaarran e' de' kaffikop-pen svart,
W:  sjung falleri! Hei fallerallera!
W:aa den e' no gjort paa en cikoriknart.
W:  Sjung falleri, fallera!
W:  Hei sjung falleri! Hei fallera!
W:  Aa seitu, reitu fallerallera!
W:aa den e' no gjort paa en cikoriknart.
W:  Sjung falleri, fallera!
W:
W:Om maanda'n, so e' de' no grauten graa,
W:  sjung falleri! Hei fallerallera!
W:aa mj\olka den e' no so temmelig blaa.
W:  Sjung falleri, fallera!
W:  Hei sjung falleri! Hei fallera!
W:  Aa seitu, reitu fallerallera!
W:aa mj\olka den e' no so temmelig blaa.
W:  Sjung falleri, fallera!
W:
W:
W:  From Musica Viva - http://www.musicaviva.com
W:  the Internet center for free sheet music downloads.

